X: 2
T: Adarim (Am)
O: Israel
M: 4/4
L: 1/8
K: Ador
|: "Am"A2 A2 AA BA | A2 AA "Em"GF E2 :| "Am"A2 A2 BA Bc | "Dm"dB cB AG cB | "Am"A8 |
| "Dm" d2 d2 d2 d2 | "Am"zd cB cB A2 | AA GF GF E2 | "G"DG FB A4 | DG FB "Am"A4 |]
%%sep 1 1 500
